images/cotacao/money.svg

<?xml version="1.0" encoding="UTF-8"?> <!-- Generator: Adobe Illustrator 19.0.0, SVG Export Plug-In . SVG Version: 6.00 Build 0) --> <svg xmlns="http://www.w3.org/2000/svg" xmlns:xlink="http://www.w3.org/1999/xlink" id="Capa_1" x="0px" y="0px" viewBox="0 0 512 512" style="enable-background:new 0 0 512 512;" xml:space="preserve"> <g> <g> <path d="M108.512,275.939c4.15,0,7.515-3.364,7.515-7.515v-5.21c0-11.984-9.157-21.87-20.841-23.03v-8.231 c0-4.151-3.365-7.515-7.515-7.515c-4.15,0-7.515,3.364-7.515,7.515v8.591c-11.858,2.299-20.841,12.756-20.841,25.275 c0,14.199,11.552,25.75,25.75,25.75h5.21c5.912,0,10.721,4.809,10.721,10.721s-4.809,10.721-10.721,10.721h-7.815 c-4.475,0-8.116-3.641-8.116-8.117c0-4.151-3.365-7.515-7.515-7.515c-4.15,0-7.515,3.364-7.515,7.515 c0,11.984,9.156,21.87,20.841,23.03v8.231c0,4.151,3.365,7.515,7.515,7.515c4.15,0,7.515-3.364,7.515-7.515v-8.591 c11.858-2.299,20.841-12.756,20.841-25.275c0-14.199-11.552-25.75-25.75-25.75h-5.21c-5.912,0-10.721-4.809-10.721-10.721 s4.809-10.721,10.721-10.721h7.815c4.475,0,8.116,3.641,8.116,8.117v5.21C100.997,272.575,104.362,275.939,108.512,275.939z"></path> </g> </g> <g> <g> <path d="M276.841,83.563c4.151,0,7.515-3.364,7.515-7.515v-5.21c0-11.984-9.157-21.87-20.841-23.03v-8.231 c0-4.151-3.364-7.515-7.515-7.515c-4.15,0-7.515,3.364-7.515,7.515v8.591c-11.858,2.299-20.841,12.756-20.841,25.275 c0,14.199,11.552,25.75,25.75,25.75h5.21c5.912,0,10.721,4.809,10.721,10.721s-4.809,10.721-10.721,10.721h-7.815 c-4.475,0-8.116-3.641-8.116-8.117c0-4.151-3.365-7.515-7.515-7.515s-7.515,3.364-7.515,7.515c0,11.984,9.156,21.87,20.841,23.03 v8.231c0,4.151,3.365,7.515,7.515,7.515c4.151,0,7.515-3.364,7.515-7.515v-8.591c11.857-2.299,20.841-12.756,20.841-25.275 c0-14.199-11.552-25.75-25.75-25.75h-5.21c-5.912,0-10.721-4.809-10.721-10.721s4.809-10.721,10.721-10.721h7.815 c4.475,0,8.116,3.641,8.116,8.117v5.21C269.326,80.2,272.69,83.563,276.841,83.563z"></path> </g> </g> <g> <g> <path d="M424.329,148.29c-21.722,0-41.622,7.945-56.954,21.076l-37.201-31.001c8.545-13.527,13.497-29.538,13.497-46.686 c0-48.342-39.329-87.671-87.671-87.671s-87.671,39.329-87.671,87.671c0,25.365,10.831,48.243,28.107,64.266l-61.262,54.455 c-13.697-8.864-30.009-14.017-47.503-14.017C39.329,196.384,0,235.712,0,284.055s39.329,87.671,87.671,87.671 c48.342,0,87.671-39.329,87.671-87.671c0-25.365-10.831-48.243-28.107-64.267l61.262-54.455 c13.697,8.864,30.009,14.017,47.503,14.017c25.798,0,49.027-11.203,65.084-28.996l35.713,29.76 c-12.573,15.177-20.139,34.644-20.139,55.846c0,48.342,39.329,87.671,87.671,87.671c48.342,0,87.671-39.329,87.671-87.671 S472.671,148.29,424.329,148.29z M160.313,284.055c0,40.055-32.587,72.642-72.642,72.642s-72.642-32.587-72.642-72.642 c0-40.055,32.587-72.642,72.642-72.642C127.726,211.413,160.313,244,160.313,284.055z M256,164.321 c-40.055,0-72.642-32.587-72.642-72.642S215.945,19.037,256,19.037s72.642,32.587,72.642,72.642S296.055,164.321,256,164.321z M424.329,308.603c-40.055,0-72.642-32.587-72.642-72.642c0-18.9,7.26-36.133,19.132-49.068c1.195-0.44,2.298-1.182,3.173-2.231 c0.565-0.678,0.982-1.43,1.271-2.213c12.935-11.869,30.166-19.129,49.065-19.129c40.055,0,72.642,32.587,72.642,72.642 C496.971,276.016,464.384,308.603,424.329,308.603z"></path> </g> </g> <g> <g> <path d="M445.169,227.845c4.151,0,7.515-3.364,7.515-7.515v-5.21c0-11.984-9.157-21.87-20.841-23.03v-8.231 c0-4.151-3.364-7.515-7.515-7.515c-4.151,0-7.515,3.364-7.515,7.515v8.591c-11.857,2.299-20.841,12.756-20.841,25.275 c0,14.199,11.552,25.75,25.75,25.75h5.209c5.912,0,10.721,4.809,10.721,10.721c0,5.912-4.809,10.721-10.721,10.721h-7.815 c-4.475,0-8.116-3.641-8.116-8.117c0-4.151-3.364-7.515-7.515-7.515c-4.151,0-7.515,3.364-7.515,7.515 c0,11.984,9.156,21.87,20.841,23.03v8.231c0,4.151,3.364,7.515,7.515,7.515c4.151,0,7.515-3.364,7.515-7.515v-8.591 c11.857-2.299,20.841-12.756,20.841-25.275c0-14.199-11.552-25.75-25.75-25.75h-5.209c-5.912,0-10.721-4.809-10.721-10.721 s4.809-10.721,10.721-10.721h7.815c4.475,0,8.116,3.641,8.116,8.117v5.21C437.655,224.481,441.018,227.845,445.169,227.845z"></path> </g> </g> <g> <g> <path d="M159.812,396.775H95.687c-4.15,0-7.515,3.364-7.515,7.515v96.188c0,4.151,3.365,7.515,7.515,7.515h64.125 c4.15,0,7.515-3.364,7.515-7.515V404.29C167.327,400.138,163.962,396.775,159.812,396.775z M152.297,492.963h-49.096v-81.159 h49.096V492.963z"></path> </g> </g> <g> <g> <path d="M472.423,396.775h-64.125c-4.151,0-7.515,3.364-7.515,7.515v96.188c0,4.151,3.364,7.515,7.515,7.515h64.125 c4.151,0,7.515-3.364,7.515-7.515V404.29C479.937,400.138,476.574,396.775,472.423,396.775z M464.908,492.963h-49.096v-81.159 h49.096V492.963z"></path> </g> </g> <g> <g> <path d="M264.016,428.34c4.151,0,7.515-3.364,7.515-7.515V308.102c0-4.151-3.364-7.515-7.515-7.515H199.89 c-4.15,0-7.515,3.364-7.515,7.515v192.376c0,4.151,3.365,7.515,7.515,7.515h64.125c4.151,0,7.515-3.364,7.515-7.515v-44.585 c0-4.151-3.364-7.515-7.515-7.515c-4.151,0-7.515,3.364-7.515,7.515v37.07h-49.096V315.616h49.096v105.208 C256.501,424.976,259.865,428.34,264.016,428.34z"></path> </g> </g> <g> <g> <path d="M368.219,348.681h-64.125c-4.151,0-7.515,3.364-7.515,7.515v144.282c0,4.151,3.364,7.515,7.515,7.515h64.125 c4.151,0,7.515-3.364,7.515-7.515V356.196C375.734,352.045,372.37,348.681,368.219,348.681z M360.705,492.963h-49.096V363.71 h49.096V492.963z"></path> </g> </g> <g> </g> <g> </g> <g> </g> <g> </g> <g> </g> <g> </g> <g> </g> <g> </g> <g> </g> <g> </g> <g> </g> <g> </g> <g> </g> <g> </g> <g> </g> </svg>

<svg width="512" height="512" viewBox="0 0 512 512" fill="none" xmlns="http://www.w3.org/2000/svg">
<path d="M108.512 275.939C112.662 275.939 116.027 272.575 116.027 268.424V263.214C116.027 251.23 106.87 241.344 95.186 240.184V231.953C95.186 227.802 91.821 224.438 87.671 224.438C83.521 224.438 80.156 227.802 80.156 231.953V240.544C68.298 242.843 59.315 253.3 59.315 265.819C59.315 280.018 70.867 291.569 85.065 291.569H90.275C96.187 291.569 100.996 296.378 100.996 302.29C100.996 308.202 96.187 313.011 90.275 313.011H82.46C77.985 313.011 74.344 309.37 74.344 304.894C74.344 300.743 70.979 297.379 66.829 297.379C62.679 297.379 59.314 300.743 59.314 304.894C59.314 316.878 68.47 326.764 80.155 327.924V336.155C80.155 340.306 83.52 343.67 87.67 343.67C91.82 343.67 95.185 340.306 95.185 336.155V327.564C107.043 325.265 116.026 314.808 116.026 302.289C116.026 288.09 104.474 276.539 90.276 276.539H85.066C79.154 276.539 74.345 271.73 74.345 265.818C74.345 259.906 79.154 255.097 85.066 255.097H92.881C97.356 255.097 100.997 258.738 100.997 263.214V268.424C100.997 272.575 104.362 275.939 108.512 275.939Z" fill="black"/>
<path d="M276.841 83.563C280.992 83.563 284.356 80.199 284.356 76.048V70.838C284.356 58.854 275.199 48.968 263.515 47.808V39.577C263.515 35.426 260.151 32.062 256 32.062C251.85 32.062 248.485 35.426 248.485 39.577V48.168C236.627 50.467 227.644 60.924 227.644 73.443C227.644 87.642 239.196 99.193 253.394 99.193H258.604C264.516 99.193 269.325 104.002 269.325 109.914C269.325 115.826 264.516 120.635 258.604 120.635H250.789C246.314 120.635 242.673 116.994 242.673 112.518C242.673 108.367 239.308 105.003 235.158 105.003C231.008 105.003 227.643 108.367 227.643 112.518C227.643 124.502 236.799 134.388 248.484 135.548V143.779C248.484 147.93 251.849 151.294 255.999 151.294C260.15 151.294 263.514 147.93 263.514 143.779V135.188C275.371 132.889 284.355 122.432 284.355 109.913C284.355 95.714 272.803 84.163 258.605 84.163H253.395C247.483 84.163 242.674 79.354 242.674 73.442C242.674 67.53 247.483 62.721 253.395 62.721H261.21C265.685 62.721 269.326 66.362 269.326 70.838V76.048C269.326 80.2 272.69 83.563 276.841 83.563Z" fill="black"/>
<path d="M424.329 148.29C402.607 148.29 382.707 156.235 367.375 169.366L330.174 138.365C338.719 124.838 343.671 108.827 343.671 91.679C343.671 43.337 304.342 4.008 256 4.008C207.658 4.008 168.329 43.337 168.329 91.679C168.329 117.044 179.16 139.922 196.436 155.945L135.174 210.4C121.477 201.536 105.165 196.383 87.671 196.383C39.329 196.384 0 235.712 0 284.055C0 332.398 39.329 371.726 87.671 371.726C136.013 371.726 175.342 332.397 175.342 284.055C175.342 258.69 164.511 235.812 147.235 219.788L208.497 165.333C222.194 174.197 238.506 179.35 256 179.35C281.798 179.35 305.027 168.147 321.084 150.354L356.797 180.114C344.224 195.291 336.658 214.758 336.658 235.96C336.658 284.302 375.987 323.631 424.329 323.631C472.671 323.631 512 284.302 512 235.96C512 187.618 472.671 148.29 424.329 148.29ZM160.313 284.055C160.313 324.11 127.726 356.697 87.671 356.697C47.616 356.697 15.029 324.11 15.029 284.055C15.029 244 47.616 211.413 87.671 211.413C127.726 211.413 160.313 244 160.313 284.055ZM256 164.321C215.945 164.321 183.358 131.734 183.358 91.679C183.358 51.624 215.945 19.037 256 19.037C296.055 19.037 328.642 51.624 328.642 91.679C328.642 131.734 296.055 164.321 256 164.321ZM424.329 308.603C384.274 308.603 351.687 276.016 351.687 235.961C351.687 217.061 358.947 199.828 370.819 186.893C372.014 186.453 373.117 185.711 373.992 184.662C374.557 183.984 374.974 183.232 375.263 182.449C388.198 170.58 405.429 163.32 424.328 163.32C464.383 163.32 496.97 195.907 496.97 235.962C496.971 276.016 464.384 308.603 424.329 308.603Z" fill="black"/>
<path d="M445.169 227.845C449.32 227.845 452.684 224.481 452.684 220.33V215.12C452.684 203.136 443.527 193.25 431.843 192.09V183.859C431.843 179.708 428.479 176.344 424.328 176.344C420.177 176.344 416.813 179.708 416.813 183.859V192.45C404.956 194.749 395.972 205.206 395.972 217.725C395.972 231.924 407.524 243.475 421.722 243.475H426.931C432.843 243.475 437.652 248.284 437.652 254.196C437.652 260.108 432.843 264.917 426.931 264.917H419.116C414.641 264.917 411 261.276 411 256.8C411 252.649 407.636 249.285 403.485 249.285C399.334 249.285 395.97 252.649 395.97 256.8C395.97 268.784 405.126 278.67 416.811 279.83V288.061C416.811 292.212 420.175 295.576 424.326 295.576C428.477 295.576 431.841 292.212 431.841 288.061V279.47C443.698 277.171 452.682 266.714 452.682 254.195C452.682 239.996 441.13 228.445 426.932 228.445H421.723C415.811 228.445 411.002 223.636 411.002 217.724C411.002 211.812 415.811 207.003 421.723 207.003H429.538C434.013 207.003 437.654 210.644 437.654 215.12V220.33C437.655 224.481 441.018 227.845 445.169 227.845Z" fill="black"/>
<path d="M159.812 396.775H95.687C91.537 396.775 88.172 400.139 88.172 404.29V500.478C88.172 504.629 91.537 507.993 95.687 507.993H159.812C163.962 507.993 167.327 504.629 167.327 500.478V404.29C167.327 400.138 163.962 396.775 159.812 396.775ZM152.297 492.963H103.201V411.804H152.297V492.963Z" fill="black"/>
<path d="M472.423 396.775H408.298C404.147 396.775 400.783 400.139 400.783 404.29V500.478C400.783 504.629 404.147 507.993 408.298 507.993H472.423C476.574 507.993 479.938 504.629 479.938 500.478V404.29C479.937 400.138 476.574 396.775 472.423 396.775ZM464.908 492.963H415.812V411.804H464.908V492.963Z" fill="black"/>
<path d="M264.016 428.34C268.167 428.34 271.531 424.976 271.531 420.825V308.102C271.531 303.951 268.167 300.587 264.016 300.587H199.89C195.74 300.587 192.375 303.951 192.375 308.102V500.478C192.375 504.629 195.74 507.993 199.89 507.993H264.015C268.166 507.993 271.53 504.629 271.53 500.478V455.893C271.53 451.742 268.166 448.378 264.015 448.378C259.864 448.378 256.5 451.742 256.5 455.893V492.963H207.404V315.616H256.5V420.824C256.501 424.976 259.865 428.34 264.016 428.34Z" fill="black"/>
<path d="M368.219 348.681H304.094C299.943 348.681 296.579 352.045 296.579 356.196V500.478C296.579 504.629 299.943 507.993 304.094 507.993H368.219C372.37 507.993 375.734 504.629 375.734 500.478V356.196C375.734 352.045 372.37 348.681 368.219 348.681ZM360.705 492.963H311.609V363.71H360.705V492.963Z" fill="black"/>
</svg>
